48/mimes/application-x-cd-image.svg

<?xml version="1.0" encoding="UTF-8" standalone="no"?>
<!-- Created with Inkscape (http://www.inkscape.org/) -->

<svg
   xmlns:dc="http://purl.org/dc/elements/1.1/"
   xmlns:cc="http://creativecommons.org/ns#"
   xmlns:rdf="http://www.w3.org/1999/02/22-rdf-syntax-ns#"
   xmlns:svg="http://www.w3.org/2000/svg"
   xmlns="http://www.w3.org/2000/svg"
   xmlns:sodipodi="http://sodipodi.sourceforge.net/DTD/sodipodi-0.dtd"
   xmlns:inkscape="http://www.inkscape.org/namespaces/inkscape"
   width="48"
   height="48"
   viewBox="0 0 12.7 12.7"
   version="1.1"
   id="svg2634"
   inkscape:version="0.92.4 5da689c313, 2019-01-14"
   sodipodi:docname="application-x-cd-image.svg">
  <title
     id="title3250">Boston Icons</title>
  <defs
     id="defs2628" />
  <sodipodi:namedview
     id="base"
     pagecolor="#ffffff"
     bordercolor="#00ffed"
     borderopacity="1"
     inkscape:pageopacity="1"
     inkscape:pageshadow="2"
     inkscape:zoom="31.678384"
     inkscape:cx="21.573125"
     inkscape:cy="22.72517"
     inkscape:document-units="px"
     inkscape:current-layer="layer1"
     showgrid="false"
     showguides="false"
     inkscape:guide-bbox="true"
     fit-margin-top="0"
     fit-margin-left="0"
     fit-margin-right="0"
     fit-margin-bottom="0"
     inkscape:window-width="1920"
     inkscape:window-height="1016"
     inkscape:window-x="0"
     inkscape:window-y="27"
     inkscape:window-maximized="1"
     units="px">
    <inkscape:grid
       type="xygrid"
       id="grid3182"
       spacingx="0.26458333"
       spacingy="0.26458333"
       empspacing="4"
       originx="-82.550004"
       originy="-127.00001"
       dotted="false" />
    <sodipodi:guide
       position="-4.268358e-06,27.516666"
       orientation="1,0"
       id="guide3216"
       inkscape:locked="false" />
    <sodipodi:guide
       position="32.279157,-4.1479283e-06"
       orientation="0,1"
       id="guide3222"
       inkscape:locked="false" />
    <sodipodi:guide
       position="13.229163,0.52915746"
       orientation="0,1"
       id="guide3226"
       inkscape:locked="false" />
    <sodipodi:guide
       position="6.3499965,7.9374908"
       orientation="1,0"
       id="guide3238"
       inkscape:locked="false" />
    <sodipodi:guide
       position="13.75833,1.0583241"
       orientation="0,1"
       id="guide3246"
       inkscape:locked="false" />
    <sodipodi:guide
       position="5.8208298,12.170824"
       orientation="0,1"
       id="guide864"
       inkscape:locked="false" />
    <sodipodi:guide
       position="12.699995,10.847905"
       orientation="1,0"
       id="guide868"
       inkscape:locked="false" />
    <sodipodi:guide
       position="2.1166616,12.170822"
       orientation="1,0"
       id="guide1119"
       inkscape:locked="false" />
    <sodipodi:guide
       position="10.583328,11.112488"
       orientation="1,0"
       id="guide1121"
       inkscape:locked="false" />
    <sodipodi:guide
       position="13.493745,6.879155"
       orientation="0.70710678,0.70710678"
       id="guide1123"
       inkscape:locked="false" />
    <sodipodi:guide
       position="7.9374949,9.7895716"
       orientation="1,0"
       id="guide1129"
       inkscape:locked="false" />
    <sodipodi:guide
       position="8.4666615,9.5249883"
       orientation="0,1"
       id="guide1131"
       inkscape:locked="false" />
    <sodipodi:guide
       position="3.4395782,8.2020716"
       orientation="1,0"
       id="guide1138"
       inkscape:locked="false" />
    <sodipodi:guide
       position="9.2604115,7.1437383"
       orientation="1,0"
       id="guide1140"
       inkscape:locked="false" />
    <sodipodi:guide
       position="4.2333282,10.318738"
       orientation="0,1"
       id="guide1142"
       inkscape:locked="false" />
    <sodipodi:guide
       position="4.7624949,8.466655"
       orientation="0,1"
       id="guide1152"
       inkscape:locked="false" />
    <sodipodi:guide
       position="5.2916616,3.704155"
       orientation="0,1"
       id="guide849"
       inkscape:locked="false" />
  </sodipodi:namedview>
  <metadata
     id="metadata2631">
    <rdf:RDF>
      <cc:Work
         rdf:about="">
        <dc:format>image/svg+xml</dc:format>
        <dc:type
           rdf:resource="http://purl.org/dc/dcmitype/StillImage" />
        <dc:title>Boston Icons</dc:title>
        <cc:license
           rdf:resource="dribbble.com/chrisdiaz" />
        <dc:creator>
          <cc:Agent>
            <dc:title>Christian Díaz</dc:title>
          </cc:Agent>
        </dc:creator>
        <dc:date>2019</dc:date>
        <dc:publisher>
          <cc:Agent>
            <dc:title>Christian Díaz</dc:title>
          </cc:Agent>
        </dc:publisher>
        <dc:identifier>christiandiaz.design [at] gmail [dot] com</dc:identifier>
        <dc:subject>
          <rdf:Bag>
            <rdf:li>GNOME icon Theme</rdf:li>
          </rdf:Bag>
        </dc:subject>
        <dc:description>diazchris.deviantart.com | dribbble.com/chrisdiaz</dc:description>
      </cc:Work>
    </rdf:RDF>
  </metadata>
  <g
     inkscape:label="Capa 1"
     inkscape:groupmode="layer"
     id="layer1"
     transform="translate(-82.550003,-157.3)">
    <g
       id="g857">
      <path
         inkscape:connector-curvature="0"
         id="path1125"
         d="m 84.666665,157.82918 h 6.085416 l 2.38125,2.38125 v 9.26041 h -8.466666 z"
         style="fill:#96a5af;fill-opacity:1;stroke:none;stroke-width:0.26458332px;stroke-linecap:butt;stroke-linejoin:miter;stroke-opacity:1" />
      <path
         sodipodi:nodetypes="cccccc"
         inkscape:connector-curvature="0"
         id="path1127"
         d="m 84.931248,158.09376 h 5.688547 l 2.248958,2.24895 -5e-6,8.86355 h -7.9375 z"
         style="fill:#ffffff;stroke:none;stroke-width:0.26458332px;stroke-linecap:butt;stroke-linejoin:miter;stroke-opacity:1" />
      <path
         id="rect1133"
         transform="matrix(0.26458333,0,0,0.26458333,82.550003,157.3)"
         d="m 30,2 v 9 1 h 1 9 V 11 H 31 V 2 Z"
         style="opacity:1;fill:#96a5af;fill-opacity:1;fill-rule:nonzero;stroke:none;stroke-width:1.99999988;stroke-linecap:square;stroke-linejoin:bevel;stroke-miterlimit:4;stroke-dasharray:none;stroke-dashoffset:35;stroke-opacity:1"
         inkscape:connector-curvature="0" />
      <path
         id="path848"
         transform="matrix(0.26458333,0,0,0.26458333,82.550003,157.3)"
         d="M 24,15 A 9.9999997,9.9999997 0 0 0 14,25 9.9999997,9.9999997 0 0 0 24,35 9.9999997,9.9999997 0 0 0 34,25 9.9999997,9.9999997 0 0 0 24,15 Z m 0,1 a 8.9999996,8.9999996 0 0 1 9,9 8.9999996,8.9999996 0 0 1 -9,9 8.9999996,8.9999996 0 0 1 -9,-9 8.9999996,8.9999996 0 0 1 9,-9 z"
         style="opacity:1;fill:#96a5af;fill-opacity:1;fill-rule:nonzero;stroke:none;stroke-width:1.99999988;stroke-linecap:square;stroke-linejoin:bevel;stroke-miterlimit:4;stroke-dasharray:none;stroke-dashoffset:35;stroke-opacity:1"
         inkscape:connector-curvature="0" />
      <path
         id="path881"
         transform="matrix(0.26458333,0,0,0.26458333,82.550003,157.3)"
         d="m 24,21 a 3.9999998,3.9999998 0 0 0 -4,4 3.9999998,3.9999998 0 0 0 4,4 3.9999998,3.9999998 0 0 0 4,-4 3.9999998,3.9999998 0 0 0 -4,-4 z m 0,3 a 0.99999995,0.99999995 0 0 1 1,1 0.99999995,0.99999995 0 0 1 -1,1 0.99999995,0.99999995 0 0 1 -1,-1 0.99999995,0.99999995 0 0 1 1,-1 z"
         style="opacity:1;fill:#cdd5d9;fill-opacity:1;fill-rule:nonzero;stroke:none;stroke-width:1.99999988;stroke-linecap:square;stroke-linejoin:bevel;stroke-miterlimit:4;stroke-dasharray:none;stroke-dashoffset:35;stroke-opacity:1"
         inkscape:connector-curvature="0" />
      <path
         id="path874"
         transform="matrix(0.26458333,0,0,0.26458333,82.550003,157.3)"
         d="m 24,21 a 3.9999998,3.9999998 0 0 0 -4,4 3.9999998,3.9999998 0 0 0 4,4 3.9999998,3.9999998 0 0 0 4,-4 3.9999998,3.9999998 0 0 0 -4,-4 z m 0,1 a 3,3 0 0 1 3,3 3,3 0 0 1 -3,3 3,3 0 0 1 -3,-3 3,3 0 0 1 3,-3 z"
         style="opacity:1;fill:#96a5af;fill-opacity:1;fill-rule:nonzero;stroke:none;stroke-width:1.99999988;stroke-linecap:square;stroke-linejoin:bevel;stroke-miterlimit:4;stroke-dasharray:none;stroke-dashoffset:35;stroke-opacity:1"
         inkscape:connector-curvature="0" />
      <path
         id="path890"
         transform="matrix(0.26458333,0,0,0.26458333,82.550003,157.3)"
         d="m 24,23 a 1.9999999,1.9999999 0 0 0 -2,2 1.9999999,1.9999999 0 0 0 2,2 1.9999999,1.9999999 0 0 0 2,-2 1.9999999,1.9999999 0 0 0 -2,-2 z m 0,1 a 0.99999995,0.99999995 0 0 1 1,1 0.99999995,0.99999995 0 0 1 -1,1 0.99999995,0.99999995 0 0 1 -1,-1 0.99999995,0.99999995 0 0 1 1,-1 z"
         style="opacity:1;fill:#96a5af;fill-opacity:1;fill-rule:nonzero;stroke:none;stroke-width:1.99999988;stroke-linecap:square;stroke-linejoin:bevel;stroke-miterlimit:4;stroke-dasharray:none;stroke-dashoffset:35;stroke-opacity:1"
         inkscape:connector-curvature="0" />
    </g>
  </g>
</svg>

<?xml version="1.0" encoding="UTF-8" standalone="no"?>
<!-- Created with Inkscape (http://www.inkscape.org/) -->

<svg
   xmlns:dc="http://purl.org/dc/elements/1.1/"
   xmlns:cc="http://creativecommons.org/ns#"
   xmlns:rdf="http://www.w3.org/1999/02/22-rdf-syntax-ns#"
   xmlns:svg="http://www.w3.org/2000/svg"
   xmlns="http://www.w3.org/2000/svg"
   xmlns:sodipodi="http://sodipodi.sourceforge.net/DTD/sodipodi-0.dtd"
   xmlns:inkscape="http://www.inkscape.org/namespaces/inkscape"
   width="48"
   height="48"
   viewBox="0 0 12.7 12.7"
   version="1.1"
   id="svg2634"
   inkscape:version="0.92.4 5da689c313, 2019-01-14"
   sodipodi:docname="application-x-cd-image.svg">
  <title
     id="title3250">Boston Icons</title>
  <defs
     id="defs2628" />
  <sodipodi:namedview
     id="base"
     pagecolor="#ffffff"
     bordercolor="#00ffed"
     borderopacity="1"
     inkscape:pageopacity="1"
     inkscape:pageshadow="2"
     inkscape:zoom="15.839192"
     inkscape:cx="2.2855245"
     inkscape:cy="24.745475"
     inkscape:document-units="px"
     inkscape:current-layer="layer1"
     showgrid="false"
     showguides="false"
     inkscape:guide-bbox="true"
     fit-margin-top="0"
     fit-margin-left="0"
     fit-margin-right="0"
     fit-margin-bottom="0"
     inkscape:window-width="1920"
     inkscape:window-height="1016"
     inkscape:window-x="0"
     inkscape:window-y="27"
     inkscape:window-maximized="1"
     units="px">
    <inkscape:grid
       type="xygrid"
       id="grid3182"
       spacingx="0.26458333"
       spacingy="0.26458333"
       empspacing="4"
       originx="-82.550004"
       originy="-127.00001"
       dotted="false" />
    <sodipodi:guide
       position="-4.268358e-06,27.516666"
       orientation="1,0"
       id="guide3216"
       inkscape:locked="false" />
    <sodipodi:guide
       position="32.279157,-4.1479283e-06"
       orientation="0,1"
       id="guide3222"
       inkscape:locked="false" />
    <sodipodi:guide
       position="13.229163,0.52915746"
       orientation="0,1"
       id="guide3226"
       inkscape:locked="false" />
    <sodipodi:guide
       position="6.3499965,7.9374908"
       orientation="1,0"
       id="guide3238"
       inkscape:locked="false" />
    <sodipodi:guide
       position="13.75833,1.0583241"
       orientation="0,1"
       id="guide3246"
       inkscape:locked="false" />
    <sodipodi:guide
       position="5.8208298,12.170824"
       orientation="0,1"
       id="guide864"
       inkscape:locked="false" />
    <sodipodi:guide
       position="12.699995,10.847905"
       orientation="1,0"
       id="guide868"
       inkscape:locked="false" />
    <sodipodi:guide
       position="2.1166616,12.170822"
       orientation="1,0"
       id="guide1119"
       inkscape:locked="false" />
    <sodipodi:guide
       position="10.583328,11.112488"
       orientation="1,0"
       id="guide1121"
       inkscape:locked="false" />
    <sodipodi:guide
       position="13.493745,6.879155"
       orientation="0.70710678,0.70710678"
       id="guide1123"
       inkscape:locked="false" />
    <sodipodi:guide
       position="7.9374949,9.7895716"
       orientation="1,0"
       id="guide1129"
       inkscape:locked="false" />
    <sodipodi:guide
       position="8.4666615,9.5249883"
       orientation="0,1"
       id="guide1131"
       inkscape:locked="false" />
    <sodipodi:guide
       position="3.4395782,8.2020716"
       orientation="1,0"
       id="guide1138"
       inkscape:locked="false" />
    <sodipodi:guide
       position="9.2604115,7.1437383"
       orientation="1,0"
       id="guide1140"
       inkscape:locked="false" />
    <sodipodi:guide
       position="4.2333282,10.318738"
       orientation="0,1"
       id="guide1142"
       inkscape:locked="false" />
    <sodipodi:guide
       position="4.7624949,8.466655"
       orientation="0,1"
       id="guide1152"
       inkscape:locked="false" />
    <sodipodi:guide
       position="5.2916616,3.704155"
       orientation="0,1"
       id="guide849"
       inkscape:locked="false" />
  </sodipodi:namedview>
  <metadata
     id="metadata2631">
    <rdf:RDF>
      <cc:Work
         rdf:about="">
        <dc:format>image/svg+xml</dc:format>
        <dc:type
           rdf:resource="http://purl.org/dc/dcmitype/StillImage" />
        <dc:title>Boston Icons</dc:title>
        <cc:license
           rdf:resource="dribbble.com/chrisdiaz" />
        <dc:creator>
          <cc:Agent>
            <dc:title>Christian Díaz</dc:title>
          </cc:Agent>
        </dc:creator>
        <dc:date>2019</dc:date>
        <dc:publisher>
          <cc:Agent>
            <dc:title>Christian Díaz</dc:title>
          </cc:Agent>
        </dc:publisher>
        <dc:identifier>christiandiaz.design [at] gmail [dot] com</dc:identifier>
        <dc:subject>
          <rdf:Bag>
            <rdf:li>GNOME icon Theme</rdf:li>
          </rdf:Bag>
        </dc:subject>
        <dc:description>diazchris.deviantart.com | dribbble.com/chrisdiaz</dc:description>
      </cc:Work>
    </rdf:RDF>
  </metadata>
  <g
     inkscape:label="Capa 1"
     inkscape:groupmode="layer"
     id="layer1"
     transform="translate(-82.550003,-157.3)">
    <g
       id="g857">
      <path
         inkscape:connector-curvature="0"
         id="path1125"
         d="m 84.666665,157.82918 h 6.085416 l 2.38125,2.38125 v 9.26041 h -8.466666 z"
         style="fill:#a8b4bd;stroke:none;stroke-width:0.26458332px;stroke-linecap:butt;stroke-linejoin:miter;stroke-opacity:1;fill-opacity:1" />
      <path
         sodipodi:nodetypes="cccccc"
         inkscape:connector-curvature="0"
         id="path1127"
         d="m 84.931248,158.09376 h 5.688547 l 2.248958,2.24895 -5e-6,8.86355 h -7.9375 z"
         style="fill:#ffffff;stroke:none;stroke-width:0.26458332px;stroke-linecap:butt;stroke-linejoin:miter;stroke-opacity:1" />
      <path
         id="rect1133"
         transform="matrix(0.26458333,0,0,0.26458333,82.550003,157.3)"
         d="M 30 2 L 30 11 L 30 12 L 31 12 L 40 12 L 40 11 L 31 11 L 31 2 L 30 2 z "
         style="opacity:1;fill:#a8b4bd;fill-opacity:1;fill-rule:nonzero;stroke:none;stroke-width:1.99999988;stroke-linecap:square;stroke-linejoin:bevel;stroke-miterlimit:4;stroke-dasharray:none;stroke-dashoffset:35;stroke-opacity:1" />
      <path
         id="path848"
         transform="matrix(0.26458333,0,0,0.26458333,82.550003,157.3)"
         d="M 24 15 A 9.9999997 9.9999997 0 0 0 14 25 A 9.9999997 9.9999997 0 0 0 24 35 A 9.9999997 9.9999997 0 0 0 34 25 A 9.9999997 9.9999997 0 0 0 24 15 z M 24 16 A 8.9999996 8.9999996 0 0 1 33 25 A 8.9999996 8.9999996 0 0 1 24 34 A 8.9999996 8.9999996 0 0 1 15 25 A 8.9999996 8.9999996 0 0 1 24 16 z "
         style="opacity:1;fill:#a8b4bd;fill-opacity:1;fill-rule:nonzero;stroke:none;stroke-width:1.99999988;stroke-linecap:square;stroke-linejoin:bevel;stroke-miterlimit:4;stroke-dasharray:none;stroke-dashoffset:35;stroke-opacity:1" />
      <path
         id="path881"
         transform="matrix(0.26458333,0,0,0.26458333,82.550003,157.3)"
         d="M 24 21 A 3.9999998 3.9999998 0 0 0 20 25 A 3.9999998 3.9999998 0 0 0 24 29 A 3.9999998 3.9999998 0 0 0 28 25 A 3.9999998 3.9999998 0 0 0 24 21 z M 24 24 A 0.99999995 0.99999995 0 0 1 25 25 A 0.99999995 0.99999995 0 0 1 24 26 A 0.99999995 0.99999995 0 0 1 23 25 A 0.99999995 0.99999995 0 0 1 24 24 z "
         style="opacity:1;fill:#e0e4e7;fill-opacity:1;fill-rule:nonzero;stroke:none;stroke-width:1.99999988;stroke-linecap:square;stroke-linejoin:bevel;stroke-miterlimit:4;stroke-dasharray:none;stroke-dashoffset:35;stroke-opacity:1" />
      <path
         id="path874"
         transform="matrix(0.26458333,0,0,0.26458333,82.550003,157.3)"
         d="M 24 21 A 3.9999998 3.9999998 0 0 0 20 25 A 3.9999998 3.9999998 0 0 0 24 29 A 3.9999998 3.9999998 0 0 0 28 25 A 3.9999998 3.9999998 0 0 0 24 21 z M 24 22 A 3 3 0 0 1 27 25 A 3 3 0 0 1 24 28 A 3 3 0 0 1 21 25 A 3 3 0 0 1 24 22 z "
         style="opacity:1;fill:#a8b4bd;fill-opacity:1;fill-rule:nonzero;stroke:none;stroke-width:1.99999988;stroke-linecap:square;stroke-linejoin:bevel;stroke-miterlimit:4;stroke-dasharray:none;stroke-dashoffset:35;stroke-opacity:1" />
      <path
         id="path890"
         transform="matrix(0.26458333,0,0,0.26458333,82.550003,157.3)"
         d="M 24 23 A 1.9999999 1.9999999 0 0 0 22 25 A 1.9999999 1.9999999 0 0 0 24 27 A 1.9999999 1.9999999 0 0 0 26 25 A 1.9999999 1.9999999 0 0 0 24 23 z M 24 24 A 0.99999995 0.99999995 0 0 1 25 25 A 0.99999995 0.99999995 0 0 1 24 26 A 0.99999995 0.99999995 0 0 1 23 25 A 0.99999995 0.99999995 0 0 1 24 24 z "
         style="opacity:1;fill:#a8b4bd;fill-opacity:1;fill-rule:nonzero;stroke:none;stroke-width:1.99999988;stroke-linecap:square;stroke-linejoin:bevel;stroke-miterlimit:4;stroke-dasharray:none;stroke-dashoffset:35;stroke-opacity:1" />
    </g>
  </g>
</svg>
